X: 14596
T: Gan Ainm
R: reel
M: 4/4
K: Gmajor
|:B2Bd ed2B|Bd2B AGGE|DB2A BAGE|GABG BAA2|
Bd2e dBAG|BAGA GEDG|B2BA G E2 D|DEGA BGG2:|
|:Bdde ce2d|Bd2B AGGE|DBBA Bdef|gedB BAA2|
Bdde de2 d|BAGA GEDG|B2BA G E2 D|DEGA BGG2:|

